svg/blobs-icons/no-decorations/target-aim.svg

<svg xmlns="http://www.w3.org/2000/svg" xmlns:xlink="http://www.w3.org/1999/xlink" preserveAspectRatio="xMidYMid" width="207" height="217" viewBox="0 0 207 217"><defs><style>.cls-3{fill:#142a3b}.cls-5{fill:#ff3a2f}.cls-6{fill:#ededed}.cls-9{fill:#020403;opacity:.25}</style></defs><g id="group-131svg"><path d="M164.685 216.873C163.313 216.873 162.002 216.088 161.395 214.759l-10.659-23.353C149.907 189.591 150.708 187.446 152.525 186.618 154.332 185.789 156.483 186.588 157.312 188.405l10.659 23.351C168.8 213.572 167.999 215.717 166.183 216.546 165.698 216.769 165.188 216.873 164.685 216.873z" id="path-1" class="cls-3" fill-rule="evenodd"/><path d="M35.582 216.873C35.079 216.873 34.569 216.769 34.084 216.546 32.267 215.717 31.466 213.572 32.296 211.756l10.658-23.351C43.784 186.588 45.934 185.788 47.742 186.618 49.558 187.446 50.36 189.591 49.53 191.406L38.872 214.759C38.264 216.088 36.953 216.873 35.582 216.873z" id="path-2" class="cls-3" fill-rule="evenodd"/><path d="M207.002 103.498C207.002 160.661 160.663 207 103.501 207S0 160.661.0 103.498C0 46.334 46.339-.008 103.501-.008S207.002 46.334 207.002 103.498z" id="path-3" class="cls-5" fill-rule="evenodd"/><path d="M181.34 103.498c0 42.99-34.849 77.84-77.839 77.84-42.99.0-77.84-34.85-77.84-77.84.0-42.993 34.85-77.843 77.84-77.843s77.839 34.85 77.839 77.843z" id="path-4" class="cls-6" fill-rule="evenodd"/><path d="M152.268 103.498c0 26.932-21.834 48.768-48.767 48.768-26.934.0-48.768-21.836-48.768-48.768.0-26.935 21.834-48.77 48.768-48.77 26.933.0 48.767 21.835 48.767 48.77z" id="path-5" class="cls-5" fill-rule="evenodd"/><path d="M125.037 103.498c0 11.893-9.643 21.535-21.536 21.535-11.894.0-21.535-9.642-21.535-21.535C81.966 91.603 91.607 81.96 103.501 81.96c11.893.0 21.536 9.643 21.536 21.538z" id="path-6" class="cls-6" fill-rule="evenodd"/><path d="M134.939 4.869c22.34 18.986 36.531 47.272 36.531 78.886.0 57.166-46.339 103.505-103.501 103.505C57.006 187.26 46.448 185.541 36.531 182.384 54.584 197.726 77.953 207 103.501 207c57.162.0 103.501-46.339 103.501-103.502.0-46.202-30.274-85.318-72.063-98.629z" id="path-7" class="cls-9" fill-rule="evenodd"/></g></svg>

<svg xmlns="http://www.w3.org/2000/svg" xmlns:xlink="http://www.w3.org/1999/xlink" preserveAspectRatio="xMidYMid" width="207" height="217" viewBox="0 0 207 217">
  <defs>
    <style>

      .cls-3 {
        fill: #142a3b;
      }

      .cls-5 {
        fill: #ff3a2f;
      }

      .cls-6 {
        fill: #ededed;
      }

      .cls-9 {
        fill: #020403;
        opacity: 0.25;
      }
    </style>
  </defs>
  <g id="group-131svg">
    <path d="M164.685,216.873 C163.313,216.873 162.002,216.088 161.395,214.759 C161.395,214.759 150.736,191.406 150.736,191.406 C149.907,189.591 150.708,187.446 152.525,186.618 C154.332,185.789 156.483,186.588 157.312,188.405 C157.312,188.405 167.971,211.756 167.971,211.756 C168.800,213.572 167.999,215.717 166.183,216.546 C165.698,216.769 165.188,216.873 164.685,216.873 Z" id="path-1" class="cls-3" fill-rule="evenodd"/>
    <path d="M35.582,216.873 C35.079,216.873 34.569,216.769 34.084,216.546 C32.267,215.717 31.466,213.572 32.296,211.756 C32.296,211.756 42.954,188.405 42.954,188.405 C43.784,186.588 45.934,185.788 47.742,186.618 C49.558,187.446 50.360,189.591 49.530,191.406 C49.530,191.406 38.872,214.759 38.872,214.759 C38.264,216.088 36.953,216.873 35.582,216.873 Z" id="path-2" class="cls-3" fill-rule="evenodd"/>
    <path d="M207.002,103.498 C207.002,160.661 160.663,207.000 103.501,207.000 C46.339,207.000 -0.000,160.661 -0.000,103.498 C-0.000,46.334 46.339,-0.008 103.501,-0.008 C160.663,-0.008 207.002,46.334 207.002,103.498 Z" id="path-3" class="cls-5" fill-rule="evenodd"/>
    <path d="M181.340,103.498 C181.340,146.488 146.491,181.338 103.501,181.338 C60.511,181.338 25.661,146.488 25.661,103.498 C25.661,60.505 60.511,25.655 103.501,25.655 C146.491,25.655 181.340,60.505 181.340,103.498 Z" id="path-4" class="cls-6" fill-rule="evenodd"/>
    <path d="M152.268,103.498 C152.268,130.430 130.434,152.266 103.501,152.266 C76.567,152.266 54.733,130.430 54.733,103.498 C54.733,76.563 76.567,54.728 103.501,54.728 C130.434,54.728 152.268,76.563 152.268,103.498 Z" id="path-5" class="cls-5" fill-rule="evenodd"/>
    <path d="M125.037,103.498 C125.037,115.391 115.394,125.033 103.501,125.033 C91.607,125.033 81.966,115.391 81.966,103.498 C81.966,91.603 91.607,81.960 103.501,81.960 C115.394,81.960 125.037,91.603 125.037,103.498 Z" id="path-6" class="cls-6" fill-rule="evenodd"/>
    <path d="M134.939,4.869 C157.279,23.855 171.470,52.141 171.470,83.755 C171.470,140.921 125.131,187.260 67.969,187.260 C57.006,187.260 46.448,185.541 36.531,182.384 C54.584,197.726 77.953,207.000 103.501,207.000 C160.663,207.000 207.002,160.661 207.002,103.498 C207.002,57.296 176.728,18.180 134.939,4.869 Z" id="path-7" class="cls-9" fill-rule="evenodd"/>
  </g>
</svg>
